Surfn/scalable/actions/scalable/view-refresh.svg

<svg width="48" xmlns="http://www.w3.org/2000/svg" height="48" viewBox="0 0 48 48" xmlns:xlink="http://www.w3.org/1999/xlink">
<path style="fill:#859900;fill-rule:evenodd" d="M 44 24 C 44 35.042969 35.042969 44 24 44 C 12.957031 44 4 35.042969 4 24 C 4 12.957031 12.957031 4 24 4 C 35.042969 4 44 12.957031 44 24 Z "/>
<g style="fill:#fff;fill-opacity:.902">
<path d="M 35.367188 19.214844 C 33.398438 14.824219 28.992188 12 24.027344 12 C 18.949219 12 14.300781 15.089844 12.472656 19.675781 L 16.324219 21.121094 C 17.542969 18.054688 20.640625 16.003906 24.027344 16.003906 C 27.292969 16.003906 30.183594 17.835938 31.523438 20.699219 L 28.714844 21.789062 L 35.898438 25.808594 L 38 18.199219 Z "/>
<path d="M 24.027344 32.003906 C 20.785156 32.003906 17.835938 30.109375 16.515625 27.265625 L 19.28125 26.230469 L 12.175781 22.296875 L 10 29.707031 L 12.652344 28.710938 C 14.582031 33.089844 19.09375 36 24.027344 36 C 29.125 36 33.636719 33.035156 35.527344 28.445312 L 31.695312 26.964844 C 30.4375 30.027344 27.425781 32.003906 24.027344 32.003906 Z "/>
</g>
</svg>

<?xml version="1.0" encoding="UTF-8" standalone="no"?>
<svg xmlns:rdf="http://www.w3.org/1999/02/22-rdf-syntax-ns#" xmlns="http://www.w3.org/2000/svg" version="1.1" xmlns:cc="http://creativecommons.org/ns#" xmlns:dc="http://purl.org/dc/elements/1.1/" viewBox="0 0 48 48">
 <path fill-rule="evenodd" fill="#828282" d="m44 24c0 11.043-8.957 20-20 20s-20-8.957-20-20 8.957-20 20-20 20 8.957 20 20z"/>
 <g fill="#ffffff" fill-opacity=".902">
  <path d="m35.367 19.215c-1.969-4.391-6.375-7.215-11.34-7.215-5.078 0-9.726 3.09-11.554 7.676l3.851 1.445c1.219-3.066 4.317-5.117 7.703-5.117 3.266 0 6.157 1.832 7.496 4.695l-2.808 1.09 7.183 4.02 2.102-7.61z"/>
  <path d="m24.027 32.004c-3.242 0-6.191-1.895-7.511-4.738l2.765-1.036-7.105-3.933-2.176 7.41 2.652-0.996c1.93 4.379 6.442 7.289 11.375 7.289 5.098 0 9.61-2.965 11.5-7.555l-3.832-1.48c-1.257 3.062-4.269 5.039-7.668 5.039z"/>
 </g>
</svg>
